src/lib/packages/icons/src/assets/line/caret-right.svg

<svg width="24" height="24" viewBox="0 0 24 24" fill="none" xmlns="http://www.w3.org/2000/svg">
<path d="M15.8799 10.125L10.686 5.74514C10.059 5.21614 9.20789 5.10105 8.46289 5.44705C7.71489 5.79505 7.25 6.52508 7.25 7.35208V16.649C7.25 17.477 7.71489 18.207 8.46289 18.554C8.74789 18.686 9.04892 18.751 9.34692 18.751C9.82592 18.751 10.299 18.5831 10.686 18.2561L15.8799 13.876C16.4329 13.409 16.75 12.726 16.75 12.001C16.75 11.276 16.4329 10.591 15.8799 10.125ZM14.9131 12.729L9.71899 17.1089C9.45999 17.3269 9.19797 17.2401 9.09497 17.1931C9.01397 17.1551 8.75 17.005 8.75 16.648V7.3511C8.75 6.9941 9.01397 6.84394 9.09497 6.80594C9.14697 6.78294 9.2391 6.74905 9.3501 6.74905C9.4601 6.74905 9.58999 6.78214 9.71899 6.89114L14.9131 11.271C15.1271 11.452 15.25 11.718 15.25 12C15.25 12.282 15.1271 12.548 14.9131 12.729Z" fill="currentColor"/>
</svg>

<svg xmlns="http://www.w3.org/2000/svg" width="24" height="24" fill="none"><path fill="currentColor" d="m15.88 10.125-5.194-4.38a2.065 2.065 0 0 0-2.223-.298A2.08 2.08 0 0 0 7.25 7.352v9.297c0 .828.465 1.558 1.213 1.905a2.07 2.07 0 0 0 2.223-.298l5.194-4.38c.553-.467.87-1.15.87-1.875 0-.725-.317-1.41-.87-1.876Zm-.967 2.604-5.194 4.38a.568.568 0 0 1-.624.084.591.591 0 0 1-.345-.545V7.351a.59.59 0 0 1 .345-.545.56.56 0 0 1 .624.085l5.194 4.38a.953.953 0 0 1 .337.729.953.953 0 0 1-.337.729Z"/></svg>
